assets/flags-color/Pr.svg

<svg xmlns="http://www.w3.org/2000/svg" viewBox="0 0 512 512"><path fill="#ff4b55" d="M0 0h512v102.4H0z"/><path fill="#f5f5f5" d="M0 102.4h512v102.4H0z"/><g fill="#ff4b55"><path d="M0 204.8h512v102.4H0zM0 409.6h512V512H0z"/></g><path fill="#f5f5f5" d="M0 307.2h512v102.4H0z"/><path fill="#41479b" d="M266.758 264.402c4.273-3.966 4.273-12.838 0-16.804L0 0v512l266.758-247.598z"/><path fill="#f5f5f5" d="M109.034 199.093l12.802 38.386 40.463.314c5.239.041 7.411 6.726 3.197 9.838l-32.551 24.037 12.205 38.579c1.58 4.995-4.107 9.127-8.369 6.08l-32.92-23.53-32.92 23.53c-4.262 3.046-9.949-1.085-8.369-6.08l12.205-38.579-32.551-24.037c-4.214-3.112-2.042-9.798 3.197-9.838l40.463-.314 12.802-38.386c1.659-4.969 8.688-4.969 10.346 0z"/></svg>

<svg xmlns="http://www.w3.org/2000/svg" x="0" y="0" enable-background="new 0 0 512 512" version="1.1" viewBox="0 0 512 512" xml:space="preserve"><path fill="#FF4B55" d="M0 0H512V102.4H0z"/><path fill="#F5F5F5" d="M0 102.4H512V204.8H0z"/><g fill="#FF4B55"><path d="M0 204.8H512V307.20000000000005H0z"/><path d="M0 409.6H512V512H0z"/></g><path fill="#F5F5F5" d="M0 307.2H512V409.6H0z"/><path fill="#41479B" d="M266.758 264.402c4.273-3.966 4.273-12.838 0-16.804L0 0v512l266.758-247.598z"/><path fill="#F5F5F5" d="m109.034 199.093 12.802 38.386 40.463.314c5.239.041 7.411 6.726 3.197 9.838l-32.551 24.037 12.205 38.579c1.58 4.995-4.107 9.127-8.369 6.08l-32.92-23.53-32.92 23.53c-4.262 3.046-9.949-1.085-8.369-6.08l12.205-38.579-32.551-24.037c-4.214-3.112-2.042-9.798 3.197-9.838l40.463-.314 12.802-38.386c1.659-4.969 8.688-4.969 10.346 0z"/></svg>
